static/images/icons/ico-log.svg

<svg width="20" height="25" viewBox="0 0 20 25" fill="none" xmlns="http://www.w3.org/2000/svg">
<path d="M19.7394 17.3211V21.6352C19.7375 23.2265 18.4474 24.5161 16.8561 24.518H5.31542C3.72415 24.5161 2.43456 23.2265 2.43264 21.6352V20.6382C2.42642 20.6387 2.42019 20.6392 2.41349 20.6392H1.67603C0.750385 20.6392 0 19.8888 0 18.9631C0 18.9162 0.00239434 18.8698 0.00622527 18.8238L0.0268166 10.3972C0.0282532 9.47247 0.778159 8.724 1.70285 8.724H2.43169V3.36404C2.4336 1.50747 3.93772 0.0028732 5.79429 0H14.3828C14.853 0 15.3075 0.172392 15.659 0.485092L19.0924 3.53739C19.5028 3.90229 19.7375 4.42473 19.7375 4.97399V9.18036C19.7379 9.18706 19.7384 9.19329 19.7384 9.19951V17.3019C19.7389 17.3086 19.7394 17.3149 19.7394 17.3211ZM18.7816 21.6352V18.2448H3.39038V21.6352C3.39182 22.6978 4.25282 23.5588 5.31542 23.5603H16.8561C17.9187 23.5588 18.7802 22.6978 18.7816 21.6352ZM18.7797 17.2871V9.67551L2.91534 9.67838C2.91534 9.67838 2.91199 9.67838 2.91055 9.67838H1.70141C1.30491 9.67838 0.983114 10.0002 0.983114 10.3967L0.965875 17.4446C1.18137 17.3436 1.42224 17.2866 1.67603 17.2866H18.7797V17.2871ZM18.7797 8.72065V5.19858H16.3734C15.3127 5.19714 14.4536 4.33806 14.4522 3.27737V0.961086C14.4292 0.959171 14.4062 0.957734 14.3828 0.957734H5.79429C4.46639 0.95965 3.39086 2.03614 3.38942 3.36404V8.72352L18.7797 8.72065ZM16.3734 4.24085H18.4402L15.4099 1.54722V3.27737C15.4099 3.80939 15.8414 4.24037 16.3734 4.24085ZM2.43264 19.6824V18.2448H1.67603C1.27953 18.2448 0.957734 18.5666 0.957734 18.9631C0.957734 19.3596 1.27953 19.6814 1.67603 19.6814H2.41349C2.42019 19.6814 2.42642 19.6819 2.43264 19.6824Z" fill="black"/>
<path d="M18.7797 15.9515V17.2871H1.67601C1.42221 17.2871 1.18134 17.3441 0.965851 17.4451L0.98309 10.3972C0.98309 10.0007 1.30489 9.67887 1.70139 9.67887H2.91053C2.91053 9.67887 2.91388 9.67887 2.91532 9.67887L18.7797 9.67599V15.952V15.9515Z" fill="#4C4C4C"/>
<path d="M6.84975 15.0561H5.32216V11.5857C5.32216 11.3214 5.10763 11.1068 4.84329 11.1068C4.57896 11.1068 4.36443 11.3214 4.36443 11.5857V15.5349C4.36443 15.7993 4.57896 16.0138 4.84329 16.0138H6.84975C7.11408 16.0138 7.32861 15.7993 7.32861 15.5349C7.32861 15.2706 7.11408 15.0561 6.84975 15.0561Z" fill="white"/>
<path d="M15.2442 13.4159C15.1542 13.3259 15.0326 13.2756 14.9057 13.2756H13.8972C13.6328 13.2756 13.4183 13.4902 13.4183 13.7545C13.4183 14.0188 13.6328 14.2334 13.8972 14.2334H14.4268V14.706C14.331 14.8439 14.1438 15.056 13.8972 15.056C13.4959 15.056 13.0486 14.4417 13.0486 13.5601C13.0486 12.6785 13.4959 12.0641 13.8972 12.0641C14.1299 12.0641 14.3109 12.2585 14.3985 12.3744C14.5575 12.5856 14.8578 12.6282 15.069 12.4692C15.2801 12.3102 15.3228 12.01 15.1638 11.7988C14.8276 11.3525 14.3779 11.1064 13.8972 11.1064C12.8844 11.1064 12.0909 12.1843 12.0909 13.5601C12.0909 14.9359 12.8844 16.0138 13.8972 16.0138C14.104 16.0138 14.3071 15.9659 14.4977 15.8763C14.5819 16.0133 14.7328 16.1052 14.9057 16.1052C15.17 16.1052 15.3845 15.8907 15.3845 15.6264V13.7545C15.3845 13.6276 15.3342 13.5055 15.2442 13.4159Z" fill="white"/>
<path d="M9.46432 11.1068C8.45152 11.1068 7.65804 12.1848 7.65804 13.5606C7.65804 14.9363 8.45152 16.0143 9.46432 16.0143C10.4771 16.0143 11.2706 14.9363 11.2706 13.5606C11.2706 12.1848 10.4771 11.1068 9.46432 11.1068ZM9.46432 15.0561C9.06303 15.0561 8.61577 14.4417 8.61577 13.5601C8.61577 12.6785 9.06303 12.0641 9.46432 12.0641C9.86561 12.0641 10.3129 12.6785 10.3129 13.5601C10.3129 14.4417 9.86561 15.0561 9.46432 15.0561Z" fill="white"/>
</svg>

<?xml version="1.0" encoding="UTF-8"?>
<svg id="Layer_1" xmlns="http://www.w3.org/2000/svg" version="1.1" viewBox="0 0 19.7 24.5">
  <!-- Generator: Adobe Illustrator 29.8.1, SVG Export Plug-In . SVG Version: 2.1.1 Build 2)  -->
  <defs>
    <style>
      .st0 {
        fill: #fff;
      }

      .st1 {
        fill: #4c4c4c;
      }
    </style>
  </defs>
  <path d="M19.7,17.3v4.3c0,1.6-1.3,2.9-2.9,2.9H5.3c-1.6,0-2.9-1.3-2.9-2.9v-1s0,0,0,0h-.7c-.9,0-1.7-.8-1.7-1.7s0,0,0-.1v-8.4c0-.9.8-1.7,1.7-1.7h.7V3.4c0-1.9,1.5-3.4,3.4-3.4h8.6c.5,0,.9.2,1.3.5l3.4,3.1c.4.4.6.9.6,1.4v4.2s0,0,0,0v8.1s0,0,0,0ZM18.8,21.6v-3.4H3.4v3.4c0,1.1.9,1.9,1.9,1.9h11.5c1.1,0,1.9-.9,1.9-1.9ZM18.8,17.3v-7.6H2.9s0,0,0,0h-1.2c-.4,0-.7.3-.7.7v7c.2-.1.4-.2.7-.2h17.1ZM18.8,8.7v-3.5h-2.4c-1.1,0-1.9-.9-1.9-1.9V1s0,0,0,0H5.8c-1.3,0-2.4,1.1-2.4,2.4v5.4h15.4ZM16.4,4.2h2.1l-3-2.7v1.7c0,.5.4,1,1,1ZM2.4,19.7v-1.4h-.8c-.4,0-.7.3-.7.7s.3.7.7.7h.7s0,0,0,0Z"/>
  <path class="st1" d="M18.8,16v1.3H1.7c-.3,0-.5,0-.7.2v-7c0-.4.3-.7.7-.7h17.1s0,6.3,0,6.3h0Z"/>
  <path class="st0" d="M6.8,15.1h-1.5v-3.5c0-.3-.2-.5-.5-.5s-.5.2-.5.5v3.9c0,.3.2.5.5.5h2c.3,0,.5-.2.5-.5s-.2-.5-.5-.5Z"/>
  <path class="st0" d="M15.2,13.4c0,0-.2-.1-.3-.1h-1c-.3,0-.5.2-.5.5s.2.5.5.5h.5v.5c0,.1-.3.3-.5.3-.4,0-.8-.6-.8-1.5s.4-1.5.8-1.5.4.2.5.3c.2.2.5.3.7,0,.2-.2.3-.5,0-.7-.3-.4-.8-.7-1.3-.7-1,0-1.8,1.1-1.8,2.5s.8,2.5,1.8,2.5.4,0,.6-.1c0,.1.2.2.4.2.3,0,.5-.2.5-.5v-1.9c0-.1,0-.2-.1-.3Z"/>
  <path class="st0" d="M9.5,11.1c-1,0-1.8,1.1-1.8,2.5s.8,2.5,1.8,2.5,1.8-1.1,1.8-2.5-.8-2.5-1.8-2.5ZM9.5,15.1c-.4,0-.8-.6-.8-1.5s.4-1.5.8-1.5.8.6.8,1.5-.4,1.5-.8,1.5Z"/>
</svg>
